src/assets/circled-right-arrow.svg

<svg width="30" height="29" viewBox="0 0 30 29" fill="none" xmlns="http://www.w3.org/2000/svg">
<circle cx="15" cy="14.5" r="13.5" stroke="#FFC701" stroke-width="2"/>
<path d="M9.01687 15.6076H19.1833L16.0717 19.3451C15.9996 19.4317 15.9454 19.5318 15.912 19.6394C15.8786 19.7471 15.8667 19.8602 15.8771 19.9725C15.898 20.1991 16.0081 20.4082 16.1831 20.5537C16.3582 20.6992 16.5839 20.7692 16.8105 20.7483C17.0372 20.7274 17.2463 20.6173 17.3918 20.4423L21.6778 15.2991C21.7066 15.2581 21.7324 15.2152 21.7549 15.1705C21.7549 15.1276 21.7978 15.1019 21.815 15.059C21.8538 14.9607 21.8742 14.8561 21.875 14.7504C21.8742 14.6448 21.8538 14.5401 21.815 14.4418C21.815 14.399 21.7721 14.3733 21.7549 14.3304C21.7324 14.2857 21.7066 14.2427 21.6778 14.2018L17.3918 9.0586C17.3112 8.96183 17.2102 8.88401 17.0962 8.83068C16.9821 8.77734 16.8577 8.7498 16.7317 8.75C16.5314 8.74961 16.3373 8.81937 16.1831 8.94716C16.0963 9.01912 16.0246 9.1075 15.972 9.20723C15.9194 9.30697 15.887 9.41609 15.8766 9.52837C15.8663 9.64064 15.8782 9.75386 15.9116 9.86152C15.9451 9.96919 15.9995 10.0692 16.0717 10.1558L19.1833 13.8932H9.01687C8.78953 13.8932 8.5715 13.9835 8.41074 14.1443C8.24998 14.3051 8.15967 14.5231 8.15967 14.7504C8.15967 14.9778 8.24998 15.1958 8.41074 15.3566C8.5715 15.5173 8.78953 15.6076 9.01687 15.6076Z" fill="#FFC701"/>
</svg>

<svg xmlns="http://www.w3.org/2000/svg" width="30" height="29" fill="none"><circle cx="15" cy="14.5" r="13.5" stroke="#FFC701" stroke-width="2"/><path fill="#FFC701" d="M9.017 15.608h10.166l-3.111 3.737a.857.857 0 1 0 1.32 1.097l4.286-5.143c.029-.04.054-.084.077-.128 0-.043.043-.07.06-.112a.858.858 0 0 0 .06-.309.859.859 0 0 0-.06-.308c0-.043-.043-.069-.06-.112a1.02 1.02 0 0 0-.077-.128l-4.286-5.143a.858.858 0 0 0-1.32 1.097l3.111 3.737H9.017a.857.857 0 1 0 0 1.715Z"/></svg>
